images/mobile-payments.svg

<svg height="64" viewBox="0 0 64 64" width="64" xmlns="http://www.w3.org/2000/svg"><path d="m33 0c-3.859375 0-7 3.140625-7 7v1h-13c-3.859375 0-7 3.140625-7 7v42c0 3.859375 3.140625 7 7 7h18c3.859375 0 7-3.140625 7-7v-1h13c3.859375 0 7-3.140625 7-7v-42c0-3.859375-3.140625-7-7-7zm0 2h18c2.761719 0 5 2.238281 5 5v1h-19c-.554688 0-1 .449219-1 1s.445312 1 1 1h19v34h-18v-29c0-3.859375-3.140625-7-7-7h-3v-1c0-2.761719 2.238281-5 5-5zm4 2c-.554688 0-1 .449219-1 1s.445312 1 1 1h2c.554688 0 1-.449219 1-1s-.445312-1-1-1zm6 0c-.554688 0-1 .449219-1 1s.445312 1 1 1h4c.554688 0 1-.449219 1-1s-.445312-1-1-1zm-30 6h18c2.761719 0 5 2.238281 5 5v1h-28v-1c0-2.761719 2.238281-5 5-5zm4 2c-.554688 0-1 .449219-1 1s.445312 1 1 1h2c.554688 0 1-.449219 1-1s-.445312-1-1-1zm6 0c-.554688 0-1 .449219-1 1s.445312 1 1 1h4c.554688 0 1-.449219 1-1s-.445312-1-1-1zm-15 6h28v34h-28zm4 28c-.554688 0-1 .449219-1 1v2c0 .550781.445312 1 1 1s1-.449219 1-1v-2c0-.550781-.445312-1-1-1zm5 0c-.554688 0-1 .449219-1 1v2c0 .550781.445312 1 1 1s1-.449219 1-1v-2c0-.550781-.445312-1-1-1zm5 0c-.554688 0-1 .449219-1 1v2c0 .550781.445312 1 1 1s1-.449219 1-1v-2c0-.550781-.445312-1-1-1zm5 0c-.554688 0-1 .449219-1 1v2c0 .550781.445312 1 1 1s1-.449219 1-1v-2c0-.550781-.445312-1-1-1zm5 0c-.554688 0-1 .449219-1 1v2c0 .550781.445312 1 1 1s1-.449219 1-1v-2c0-.550781-.445312-1-1-1zm6 0h18v3c0 2.761719-2.238281 5-5 5h-13zm4 2c-1.105469 0-2 .894531-2 2s.894531 2 2 2 2-.894531 2-2-.894531-2-2-2zm-34 6h28v3c0 2.761719-2.238281 5-5 5h-18c-2.761719 0-5-2.238281-5-5zm14 2c-1.105469 0-2 .894531-2 2s.894531 2 2 2 2-.894531 2-2-.894531-2-2-2zm0 0" fill="#003e6b"/></svg>

<?xml version="1.0" encoding="UTF-8"?>
<svg xmlns="http://www.w3.org/2000/svg" viewBox="0 0 64 64" width="64px" height="64px">
<g id="surface12908262">
<path style=" stroke:none;fill-rule:nonzero;fill:rgb(0%,24.313726%,41.960785%);fill-opacity:1;" d="M 33 0 C 29.140625 0 26 3.140625 26 7 L 26 8 L 13 8 C 9.140625 8 6 11.140625 6 15 L 6 57 C 6 60.859375 9.140625 64 13 64 L 31 64 C 34.859375 64 38 60.859375 38 57 L 38 56 L 51 56 C 54.859375 56 58 52.859375 58 49 L 58 7 C 58 3.140625 54.859375 0 51 0 Z M 33 2 L 51 2 C 53.761719 2 56 4.238281 56 7 L 56 8 L 37 8 C 36.445312 8 36 8.449219 36 9 C 36 9.550781 36.445312 10 37 10 L 56 10 L 56 44 L 38 44 L 38 15 C 38 11.140625 34.859375 8 31 8 L 28 8 L 28 7 C 28 4.238281 30.238281 2 33 2 Z M 37 4 C 36.445312 4 36 4.449219 36 5 C 36 5.550781 36.445312 6 37 6 L 39 6 C 39.554688 6 40 5.550781 40 5 C 40 4.449219 39.554688 4 39 4 Z M 43 4 C 42.445312 4 42 4.449219 42 5 C 42 5.550781 42.445312 6 43 6 L 47 6 C 47.554688 6 48 5.550781 48 5 C 48 4.449219 47.554688 4 47 4 Z M 13 10 L 31 10 C 33.761719 10 36 12.238281 36 15 L 36 16 L 8 16 L 8 15 C 8 12.238281 10.238281 10 13 10 Z M 17 12 C 16.445312 12 16 12.449219 16 13 C 16 13.550781 16.445312 14 17 14 L 19 14 C 19.554688 14 20 13.550781 20 13 C 20 12.449219 19.554688 12 19 12 Z M 23 12 C 22.445312 12 22 12.449219 22 13 C 22 13.550781 22.445312 14 23 14 L 27 14 C 27.554688 14 28 13.550781 28 13 C 28 12.449219 27.554688 12 27 12 Z M 8 18 L 36 18 L 36 52 L 8 52 Z M 12 46 C 11.445312 46 11 46.449219 11 47 L 11 49 C 11 49.550781 11.445312 50 12 50 C 12.554688 50 13 49.550781 13 49 L 13 47 C 13 46.449219 12.554688 46 12 46 Z M 17 46 C 16.445312 46 16 46.449219 16 47 L 16 49 C 16 49.550781 16.445312 50 17 50 C 17.554688 50 18 49.550781 18 49 L 18 47 C 18 46.449219 17.554688 46 17 46 Z M 22 46 C 21.445312 46 21 46.449219 21 47 L 21 49 C 21 49.550781 21.445312 50 22 50 C 22.554688 50 23 49.550781 23 49 L 23 47 C 23 46.449219 22.554688 46 22 46 Z M 27 46 C 26.445312 46 26 46.449219 26 47 L 26 49 C 26 49.550781 26.445312 50 27 50 C 27.554688 50 28 49.550781 28 49 L 28 47 C 28 46.449219 27.554688 46 27 46 Z M 32 46 C 31.445312 46 31 46.449219 31 47 L 31 49 C 31 49.550781 31.445312 50 32 50 C 32.554688 50 33 49.550781 33 49 L 33 47 C 33 46.449219 32.554688 46 32 46 Z M 38 46 L 56 46 L 56 49 C 56 51.761719 53.761719 54 51 54 L 38 54 Z M 42 48 C 40.894531 48 40 48.894531 40 50 C 40 51.105469 40.894531 52 42 52 C 43.105469 52 44 51.105469 44 50 C 44 48.894531 43.105469 48 42 48 Z M 8 54 L 36 54 L 36 57 C 36 59.761719 33.761719 62 31 62 L 13 62 C 10.238281 62 8 59.761719 8 57 Z M 22 56 C 20.894531 56 20 56.894531 20 58 C 20 59.105469 20.894531 60 22 60 C 23.105469 60 24 59.105469 24 58 C 24 56.894531 23.105469 56 22 56 Z M 22 56 "/>
</g>
</svg>
